tipitek/img/sprite/icon-m.svg

<svg width="20" height="16" viewBox="0 0 20 16" fill="none" xmlns="http://www.w3.org/2000/svg">
<path d="M2.67751 3.45351C2.68927 3.33664 2.67352 3.21865 2.63151 3.10896C2.5895 2.99927 2.52241 2.90094 2.43559 2.82183L0.642311 0.645509V0.320068H6.20839L10.5111 9.82887L14.2935 0.320068H19.6004V0.645509L18.0673 2.12487C18.0023 2.17503 17.9522 2.24189 17.9223 2.31831C17.8923 2.39474 17.8837 2.47785 17.8974 2.55879V13.4394C17.8837 13.5204 17.8923 13.6035 17.9223 13.6799C17.9522 13.7563 18.0023 13.8232 18.0673 13.8733L19.5649 15.3537V15.6801H12.0346V15.3546L13.586 13.8378C13.7386 13.6842 13.7386 13.6391 13.7386 13.4049V4.60935L9.42631 15.6436H8.84455L3.82375 4.60935V12.0052C3.78247 12.3153 3.88519 12.6292 4.10215 12.8538L6.11911 15.3191V15.6436H0.400391V15.3191L2.41639 12.8538C2.52306 12.7425 2.60222 12.6078 2.64756 12.4605C2.6929 12.3131 2.70316 12.1572 2.67751 12.0052V3.45351Z" fill="#3E4757"/>
</svg>

<svg width="20" height="16" fill="none" xmlns="http://www.w3.org/2000/svg"><path d="M2.678 3.454a.753.753 0 0 0-.242-.632L.642.646V.32h5.566l4.303 9.509L14.294.32H19.6v.326l-1.533 1.479a.453.453 0 0 0-.17.434v10.88a.452.452 0 0 0 .17.434l1.498 1.48v.327h-7.53v-.325l1.551-1.517c.153-.154.153-.199.153-.433V4.609L9.426 15.644h-.581L3.824 4.609v7.396c-.042.31.061.624.278.849l2.017 2.465v.325H.4v-.325l2.016-2.465a.989.989 0 0 0 .262-.849V3.454z" fill="#3E4757"/></svg>
